X:1
T:Title
%%score { ( 1 2 5 ) | ( 3 4 ) }
L:1/8
Q:1/4=100
M:4/4
K:Ab
V:1 treble nm="Grand Piano"
V:2 treble 
V:5 treble 
V:3 bass 
V:4 bass 
V:1
 E4 z2 C2 | c2- [Ec]2 C2 C2 | C2 z F .[A,CG]2 [Fd]>[Ec] | B2- [=DB-]2 [EB]2 _D2 | C2 CB ccee | %5
w: Fred~A.~Fillmore *|||||
 d2- [Fd]2 z2 _C2 |[M:17/16] z/ z/ z/ z/ z FGdc3/2B |[M:4/4] [CA]6 z2 | [Ec]3 [DB] [CA]4 | %9
w: ||||
 [EA]3 [EG] F4 | F2 A2 E2 [Ec]2 | [=Dc]3 [DB] B2 e2 | e4 z4 | [=Ec]4 z4 | %14
w: |||||
[M:17/16] z/ z/ z/ z/ z FGdc3/2B |[M:3/4] [CA]6 |] %16
w: ||
V:2
 [A,C]2 [A,C]2 .[A,CG]2 B>A | E2 z2 E4 | E4 z4 | =D2 z2 z4 | A4 E2 _G2 | F2 z2 F4 | %6
[M:17/16] E/-E/-E-<E z/ z/ z/ z/ z/ z/ z/ z/ z/ z |[M:4/4] x8 | x8 | x8 | x8 | x8 | z2 Cd c4 | %13
 z2 G,B A2 F2 |[M:17/16] E/-E/-E-<E z/ z/ z/ z/ z/ z/ z/ z/ z/ z |[M:3/4] x6 |] %16
V:3
 A,,2 z F z A [A,,A,]2 | [A,,A,]2 [A,,A,]2 [A,,A,]2 [A,,A,]2 | [A,,A,]2 [A,,A,]2 z A [A,,A,]2 | %3
 [B,,A,]2 [F,A,]2 [E,G,]4 | [A,,A,]2 z D [A,,A,]2 [C,A,]2 | [D,A,]2 [D,A,]2 [D,A,D]2 [=D,A,]2 | %6
[M:17/16] [E,A,C]-<[E,A,C][E,A,]-<[E,A,][E,B,D][E,G,F][E,A,E]3/2[E,G,D] |[M:4/4] [A,,A,]6 z2 | %8
 [A,,A,]3 [E,G,] [F,A,]4 | [C,A,]3 [C,A,] [D,A,D]4 | [D,A,D]2 [F,A,D]2 [A,C]2 [A,,A,]2 | %11
 z4 G,2 z2 | E2- [A,E][A,B,E] [A,E]4 | z4 [F,C]2 z2 | %14
[M:17/16] [E,A,C]-<[E,A,C][E,A,]-<[E,A,][E,B,D][E,G,F][E,A,E]3/2[E,D] |[M:3/4] [A,,A,]6 |] %16
V:4
 z2 A,,2 A,,2 z2 | x8 | z4 A,,2 z2 | x8 | z2 [A,,A,]2 z4 | x8 |[M:17/16] x17/2 |[M:4/4] x8 | x8 | %9
 x8 | x8 | [B,,A,]3 [B,,A,] [E,E]2- [E,DE]2 | [A,C]2 z2 z4 | [C,G,]2 C,[=E,G,C] A,2- [=D,A,_C]2 | %14
[M:17/16] x17/2 |[M:3/4] x6 |] %16
V:5
 x8 | x8 | z2 C2 z4 | x8 | x8 | x8 |[M:17/16] z/ z/ z C-<C z/ z/ z/ z/ z/ z/ z/ z |[M:4/4] x8 | %8
 x8 | x8 | x8 | x8 | x8 | x8 |[M:17/16] z/ z/ z C-<C z/ z/ z/ z/ z/ z/ z/ z |[M:3/4] x6 |] %16

